packages/foundations/assets/icons/functional/images/human/wc_sign_20.svg

<svg width="20" height="20" viewBox="0 0 20 20" fill="none" xmlns="http://www.w3.org/2000/svg">
<g clip-path="url(#clip0_185_1298)">
<path fill-rule="evenodd" clip-rule="evenodd" d="M2 6.51557C2 5.92177 2.5312 5.54677 3.0312 5.54677C3.4375 5.54677 3.8592 5.79317 3.9688 6.29677L4.8358 10.2841L5.8125 6.26557C5.9271 5.79417 6.375 5.54677 6.7812 5.54677C7.1875 5.54677 7.6358 5.78487 7.75 6.26557L8.7054 10.2989L9.5625 6.29677C9.6771 5.76327 10.0938 5.54677 10.5 5.54677C11.0312 5.54677 11.5312 5.92177 11.5312 6.51557C11.5312 6.60937 11.5249 6.70117 11.5 6.79677L9.6875 13.7656C9.5578 14.2644 9.125 14.4844 8.7188 14.4844C8.3125 14.4844 7.8904 14.2615 7.75 13.7656L6.75 10.2344L5.75 13.7656C5.6073 14.2696 5.1875 14.4844 4.7812 14.4844C4.375 14.4844 3.9407 14.2335 3.8125 13.7344L2.0312 6.79677C2.0067 6.70107 2 6.60937 2 6.51557ZM11.9688 10.0468C11.9688 5.92177 14.4062 5.48438 15.4688 5.48438C16.0938 5.48438 16.75 5.60937 17.3438 5.89057C17.7812 6.07807 17.9688 6.42177 17.9688 6.76557C17.9688 7.29677 17.5625 7.82808 17 7.82808C16.875 7.82808 16.7188 7.79678 16.5938 7.73438C16.25 7.57807 15.9062 7.48438 15.5625 7.48438C15.125 7.48438 13.9688 7.48437 13.9688 10.0468C13.9688 12.5156 15 12.5156 15.5625 12.5156C15.9375 12.4844 16.3125 12.3906 16.6562 12.2656C16.7812 12.2344 16.9062 12.2031 17.0312 12.2031C17.5938 12.2031 18 12.7344 18 13.2656C18 13.6406 17.8125 13.9844 17.3438 14.1718C16.75 14.3594 16.125 14.4844 15.5 14.5156C14.1875 14.5156 11.9688 13.9218 11.9688 10.0468Z" fill="#1A1C1F"/>
</g>
<defs>
<clipPath id="clip0_185_1298">
<rect width="20" height="20" fill="white"/>
</clipPath>
</defs>
</svg>

<svg xmlns="http://www.w3.org/2000/svg" width="20" height="20" fill="none"><g clip-path="url(#a)"><path fill="#1A1C1F" fill-rule="evenodd" d="M2 6.516c0-.594.531-.97 1.031-.97.406 0 .828.247.938.75l.867 3.988.976-4.018c.115-.472.563-.72.97-.72.406 0 .854.239.968.72l.955 4.033.857-4.002c.115-.534.532-.75.938-.75.531 0 1.031.375 1.031.969 0 .093-.006.185-.031.28l-1.812 6.97c-.13.498-.563.718-.97.718-.405 0-.828-.223-.968-.718l-1-3.532-1 3.532c-.143.504-.562.718-.969.718a.99.99 0 0 1-.968-.75L2.03 6.797A1.1 1.1 0 0 1 2 6.516m9.969 3.53c0-4.124 2.437-4.562 3.5-4.562.625 0 1.281.125 1.875.407.437.187.625.53.625.875 0 .53-.407 1.062-.969 1.062a1 1 0 0 1-.406-.094c-.344-.156-.688-.25-1.032-.25-.437 0-1.593 0-1.593 2.563 0 2.469 1.031 2.469 1.594 2.469.374-.032.75-.125 1.093-.25.125-.032.25-.063.375-.063.563 0 .969.531.969 1.063 0 .375-.187.718-.656.906a7.4 7.4 0 0 1-1.844.344c-1.312 0-3.531-.594-3.531-4.47" clip-rule="evenodd"/></g><defs><clipPath id="a"><path fill="#fff" d="M0 0h20v20H0z"/></clipPath></defs></svg>
